assets/flags-color/Kh.svg

<svg xmlns="http://www.w3.org/2000/svg" viewBox="0 0 512 512"><path fill="#41479b" d="M0 0h512v512H0z"/><path fill="#ff4b55" d="M0 121.26h512v269.47H0z"/><path fill="#f5f5f5" d="M434.297 358.16v-19.103h-6.367v-12.736h-6.368v-12.736h-6.368V300.85h-19.103v-38.207h-.002l6.37-6.367v-19.104h-6.368v-12.735h-6.368v-19.104h-6.368v-12.735h-6.367v-12.736h-6.368v-6.367h-12.736v6.367h-6.367v12.736h-6.368v12.735h-6.368v19.104h-6.368v12.735h-38.206v-19.103h-6.368v-19.103h-6.368v-19.104h-6.368v-12.735h-6.367v-12.736h-6.368v-6.367h-3.184v-6.368h-6.368v6.368h-3.184v6.367h-6.368v12.736h-6.367v12.735h-6.368v19.104h-6.368v19.103h-6.368v19.103h-38.206v-12.735h-6.368v-19.104h-6.368v-12.735h-6.368v-12.736h-6.367v-6.367H141.38v6.367h-6.368v12.736h-6.367v12.735h-6.368v19.104h-6.368v12.735h-6.368v19.104l6.365 6.367h.003v38.207H96.806v12.735h-6.368v12.736H84.07v12.736h-6.367v19.103h-6.368v19.103h369.33V358.16z"/></svg>

<svg xmlns="http://www.w3.org/2000/svg" x="0" y="0" enable-background="new 0 0 512 512" version="1.1" viewBox="0 0 512 512" xml:space="preserve"><path fill="#41479B" d="M0 0H512V512H0z"/><path fill="#FF4B55" d="M0 121.26H512V390.73H0z"/><path fill="#F5F5F5" d="M434.297 358.16 434.297 339.057 427.93 339.057 427.93 326.321 421.562 326.321 421.562 313.585 415.194 313.585 415.194 300.85 396.091 300.85 396.091 262.643 396.089 262.643 402.459 256.276 402.459 237.172 396.091 237.172 396.091 224.437 389.723 224.437 389.723 205.333 383.355 205.333 383.355 192.598 376.988 192.598 376.988 179.862 370.62 179.862 370.62 173.495 357.884 173.495 357.884 179.862 351.517 179.862 351.517 192.598 345.149 192.598 345.149 205.333 338.781 205.333 338.781 224.437 332.413 224.437 332.413 237.172 294.207 237.172 294.207 218.069 287.839 218.069 287.839 198.966 281.471 198.966 281.471 179.862 275.103 179.862 275.103 167.127 268.736 167.127 268.736 154.391 262.368 154.391 262.368 148.024 259.184 148.024 259.184 141.656 252.816 141.656 252.816 148.024 249.632 148.024 249.632 154.391 243.264 154.391 243.264 167.127 236.897 167.127 236.897 179.862 230.529 179.862 230.529 198.966 224.161 198.966 224.161 218.069 217.793 218.069 217.793 237.172 179.587 237.172 179.587 224.437 173.219 224.437 173.219 205.333 166.851 205.333 166.851 192.598 160.483 192.598 160.483 179.862 154.116 179.862 154.116 173.495 141.38 173.495 141.38 179.862 135.012 179.862 135.012 192.598 128.645 192.598 128.645 205.333 122.277 205.333 122.277 224.437 115.909 224.437 115.909 237.172 109.541 237.172 109.541 256.276 115.906 262.643 115.909 262.643 115.909 300.85 96.806 300.85 96.806 313.585 90.438 313.585 90.438 326.321 84.07 326.321 84.07 339.057 77.703 339.057 77.703 358.16 71.335 358.16 71.335 377.263 440.665 377.263 440.665 358.16z"/></svg>
